X:1
T:The Field in the Forest
C:Adam Broome
K:F
M:6/8
"F"FAc f2 g|aba gfd|cAG FGA|"Bb"D2B- BAG|
"F"FAc f2 g|aba gfd|cAG FGA|G2F-F3:|
|:"F"FAc"C7sus4"G3|"F"FAc"C7sus4"G3|"F"FGA "C7sus4"BAG|"F"A2 c-c3|
"F"FAc"C7sus4"G3|"F"FAc"C7sus4"G3|"F/C"FGA "C"BAG|"F"A2 F-F3:|
